svg/u1f1f6.svg

<svg viewBox="0 0 128 128" xmlns="http://www.w3.org/2000/svg">
  <path d="m102.61 107.83c10.8-9.85 16.84-24.08 16.84-39.9 0-29.73-21.33-53.82-55.45-53.82s-55.45 24.1-55.45 53.82c0 29.73 21.33 53.82 55.45 53.82 7.69 0 14.72-1.23 21.01-3.47l5.97 8.54c0.4 0.57 1.04 0.89 1.7 0.89 0.19 0 0.39-0.03 0.58-0.08l16.51-4.75c0.64-0.19 1.16-0.67 1.39-1.31 0.22-0.63 0.13-1.33-0.26-1.89l-8.29-11.85zm-38.61-11.94c-17.72 0-28.81-12.52-28.81-27.96s11.08-27.96 28.81-27.96 28.81 12.52 28.81 27.96c0 6.65-2.07 12.76-5.82 17.56l-7.26-10.38c-0.51-0.73-1.42-1.05-2.28-0.81l-16.52 4.75c-0.64 0.19-1.16 0.67-1.39 1.31-0.22 0.63-0.13 1.33 0.26 1.89l9.27 13.25c-1.62 0.24-3.3 0.39-5.07 0.39z" fill="#40C0E7"/>
</svg>

<svg viewBox="0 0 128 128" xmlns="http://www.w3.org/2000/svg">
  <defs/>
  <path d="M102.61,107.83 C113.41,97.98 119.45,83.75 119.45,67.93 C119.45,38.2 98.12,14.11 64,14.11 C29.88,14.11 8.55,38.21 8.55,67.93 C8.55,97.66 29.88,121.75 64,121.75 C71.69,121.75 78.72,120.52 85.01,118.28 L90.98,126.82 C91.38,127.39 92.02,127.71 92.68,127.71 C92.87,127.71 93.07,127.68 93.26,127.63 L109.77,122.88 C110.41,122.69 110.93,122.21 111.16,121.57 C111.38,120.94 111.29,120.24 110.9,119.68 L102.61,107.83 Z M64,95.89 C46.28,95.89 35.19,83.37 35.19,67.93 C35.19,52.49 46.27,39.97 64,39.97 C81.73,39.97 92.81,52.49 92.81,67.93 C92.81,74.58 90.74,80.69 86.99,85.49 L79.73,75.11 C79.22,74.38 78.31,74.06 77.45,74.3 L60.93,79.05 C60.29,79.24 59.77,79.72 59.54,80.36 C59.32,80.99 59.41,81.69 59.8,82.25 L69.07,95.5 C67.45,95.74 65.77,95.89 64,95.89 Z" fill="#40C0E7"/>
</svg>
